symbols/web/next_week/materialsymbolsoutlined/next_week_wght500grad200_24px.svg

<svg xmlns="http://www.w3.org/2000/svg" height="24" width="24"><path d="m11 18.25 4.5-4.5L11 9.275 9.15 11.1l2.65 2.65-2.65 2.65Zm-7.05 3.875q-1.175 0-2-.837-.825-.838-.825-2.013V8.25q0-1.175.825-2t2-.825h3.275v-1.95q0-1.175.825-2t2-.825h3.9q1.175 0 2 .825t.825 2v1.95h3.275q1.175 0 2 .825t.825 2v11.025q0 1.175-.825 2.013-.825.837-2 .837Zm6.1-16.7h3.9v-1.95h-3.9Zm-6.1 13.85h16.1V8.25H3.95v11.025Zm0 0V8.25v11.025Z"/></svg>

<svg xmlns="http://www.w3.org/2000/svg" height="24" width="24"><path d="M11 18.25 15.5 13.75 11 9.275 9.15 11.1 11.8 13.75 9.15 16.4ZM3.95 22.125Q2.775 22.125 1.95 21.288Q1.125 20.45 1.125 19.275V8.25Q1.125 7.075 1.95 6.25Q2.775 5.425 3.95 5.425H7.225V3.475Q7.225 2.3 8.05 1.475Q8.875 0.65 10.05 0.65H13.95Q15.125 0.65 15.95 1.475Q16.775 2.3 16.775 3.475V5.425H20.05Q21.225 5.425 22.05 6.25Q22.875 7.075 22.875 8.25V19.275Q22.875 20.45 22.05 21.288Q21.225 22.125 20.05 22.125ZM10.05 5.425H13.95V3.475Q13.95 3.475 13.95 3.475Q13.95 3.475 13.95 3.475H10.05Q10.05 3.475 10.05 3.475Q10.05 3.475 10.05 3.475ZM3.95 19.275H20.05Q20.05 19.275 20.05 19.275Q20.05 19.275 20.05 19.275V8.25Q20.05 8.25 20.05 8.25Q20.05 8.25 20.05 8.25H3.95Q3.95 8.25 3.95 8.25Q3.95 8.25 3.95 8.25V19.275Q3.95 19.275 3.95 19.275Q3.95 19.275 3.95 19.275ZM3.95 19.275Q3.95 19.275 3.95 19.275Q3.95 19.275 3.95 19.275V8.25Q3.95 8.25 3.95 8.25Q3.95 8.25 3.95 8.25Q3.95 8.25 3.95 8.25Q3.95 8.25 3.95 8.25V19.275Q3.95 19.275 3.95 19.275Q3.95 19.275 3.95 19.275Z"/></svg>
